src/assets/e-book.svg

<svg xmlns="http://www.w3.org/2000/svg" width="200" height="240" fill="none" stroke="currentColor" viewBox="0 0 200 240"><rect width="140" height="200" x="30" y="20" stroke-width="2" rx="8"/><path stroke-width="1.5" d="M30 40v180q0 5 5 5h135q5 0 5-5V20" opacity=".3"/><path stroke-linecap="round" stroke-width="2" d="M50 60h100M50 80h90m-90 20h100M50 120h80" opacity=".6"/><circle cx="100" cy="170" r="25" stroke-width="2"/><path stroke-linecap="round" stroke-linejoin="round" stroke-width="2.5" d="m92 170 6 6 10-13"/><path stroke-width="2" d="M150 20v20l20-20Z"/></svg>

<svg xmlns="http://www.w3.org/2000/svg" viewBox="0 0 200 240" width="200" height="240" fill="none" stroke="currentColor">
  <!-- Fondo del libro -->
  <rect x="30" y="20" width="140" height="200" rx="8" fill="none" stroke="currentColor" stroke-width="2"/>
  
  <!-- Sombra lateral del libro -->
  <path d="M 30 40 L 30 220 Q 30 225 35 225 L 170 225 Q 175 225 175 220 L 175 20" 
        fill="none" stroke="currentColor" stroke-width="1.5" opacity="0.3"/>
  
  <!-- Líneas de texto -->
  <line x1="50" y1="60" x2="150" y2="60" stroke="currentColor" stroke-width="2" stroke-linecap="round" opacity="0.6"/>
  <line x1="50" y1="80" x2="140" y2="80" stroke="currentColor" stroke-width="2" stroke-linecap="round" opacity="0.6"/>
  <line x1="50" y1="100" x2="150" y2="100" stroke="currentColor" stroke-width="2" stroke-linecap="round" opacity="0.6"/>
  <line x1="50" y1="120" x2="130" y2="120" stroke="currentColor" stroke-width="2" stroke-linecap="round" opacity="0.6"/>
  
  <!-- Icono de e-book (pantalla/digital) -->
  <circle cx="100" cy="170" r="25" fill="none" stroke="currentColor" stroke-width="2"/>
  <path d="M 92 170 L 98 176 L 108 163" fill="none" stroke="currentColor" stroke-width="2.5" stroke-linecap="round" stroke-linejoin="round"/>
  
  <!-- Esquina doblada -->
  <path d="M 150 20 L 150 40 L 170 20 Z" fill="none" stroke="currentColor" stroke-width="2"/>
</svg>
